X: 7058
T: Chopman, The
R: reel
M: 4/4
K: Eminor
E2 BE GEGe|E2 BG FDDF|E2 BE GABG|FAdA FDDF
E2 BE GEGe|E2 BG FDDF|E2 BE GABG|FAdA FDDF:|
EeeB GABG|EeeG FDDF|EeeB GABG|FAdA FDDF
EeeB GABG|EeeG FDDF|EeeB GABG|FAdA FDDF:|

